packages/icons/web/heart_large.svg

<svg width="24" height="24" viewBox="0 0 24 24" fill="none" xmlns="http://www.w3.org/2000/svg">
<path d="M19.612 6.41452C19.1722 5.96607 18.65 5.61034 18.0752 5.36763C17.5005 5.12492 16.8844 5 16.2623 5C15.6401 5 15.0241 5.12492 14.4493 5.36763C13.8746 5.61034 13.3524 5.96607 12.9126 6.41452L11.9998 7.34476L11.087 6.41452C10.1986 5.50912 8.99364 5.00047 7.73725 5.00047C6.48085 5.00047 5.27591 5.50912 4.38751 6.41452C3.4991 7.31992 3 8.5479 3 9.82833C3 11.1088 3.4991 12.3367 4.38751 13.2421L5.30029 14.1724L11.9998 21L18.6992 14.1724L19.612 13.2421C20.0521 12.7939 20.4011 12.2617 20.6393 11.676C20.8774 11.0902 21 10.4624 21 9.82833C21 9.19428 20.8774 8.56645 20.6393 7.9807C20.4011 7.39494 20.0521 6.86275 19.612 6.41452V6.41452Z" stroke="#212933" stroke-width="2" stroke-linecap="round" stroke-linejoin="round"/>
</svg>

<svg width="24" height="24" fill="none" xmlns="http://www.w3.org/2000/svg">
    <path d="M19.612 6.415a4.73 4.73 0 00-1.537-1.047 4.659 4.659 0 00-3.626 0 4.731 4.731 0 00-1.536 1.047l-.913.93-.913-.93A4.693 4.693 0 007.737 5a4.693 4.693 0 00-3.35 1.415A4.875 4.875 0 003 9.828c0 1.28.5 2.509 1.388 3.414l.912.93L12 21l6.7-6.828.912-.93c.44-.448.79-.98 1.027-1.566a4.908 4.908 0 000-3.695 4.834 4.834 0 00-1.027-1.566v0z" stroke="currentColor" stroke-width="2" stroke-linecap="round" stroke-linejoin="round"/>
</svg>
